packages/assets/static/images/icons/baby-carriage.svg

<svg width="24" height="24" viewBox="0 0 24 24" xmlns="http://www.w3.org/2000/svg">
<path d="M15.375 2.25H14.625C14.2272 2.25 13.8456 2.40804 13.5643 2.68934C13.283 2.97064 13.125 3.35218 13.125 3.75V9H5.55C5.37596 8.15354 4.91541 7.39297 4.24597 6.8465C3.57654 6.30002 2.73916 6.00106 1.875 6C1.67609 6 1.48532 6.07902 1.34467 6.21967C1.20402 6.36032 1.125 6.55109 1.125 6.75C1.125 6.94891 1.20402 7.13968 1.34467 7.28033C1.48532 7.42098 1.67609 7.5 1.875 7.5C2.47174 7.5 3.04403 7.73705 3.46599 8.15901C3.88795 8.58097 4.125 9.15326 4.125 9.75C4.12723 11.7384 4.91813 13.6448 6.32417 15.0508C7.7302 16.4569 9.63656 17.2478 11.625 17.25H15.375C17.3641 17.25 19.2718 16.4598 20.6783 15.0533C22.0848 13.6468 22.875 11.7391 22.875 9.75C22.875 7.76088 22.0848 5.85322 20.6783 4.4467C19.2718 3.04018 17.3641 2.25 15.375 2.25ZM21.3263 9H16.0134L19.9378 5.86031C20.6978 6.74851 21.1805 7.84015 21.3263 9ZM15.375 3.75C16.6065 3.74884 17.8081 4.12907 18.8147 4.83844L14.625 8.18906V3.75H15.375ZM15.375 15.75H11.625C10.1641 15.7482 8.75383 15.2143 7.65811 14.248C6.5624 13.2817 5.85629 11.9492 5.67188 10.5H21.3281C21.1437 11.9492 20.4376 13.2817 19.3419 14.248C18.2462 15.2143 16.8359 15.7482 15.375 15.75ZM10.125 20.25C10.125 20.5467 10.037 20.8367 9.8722 21.0834C9.70738 21.33 9.47311 21.5223 9.19903 21.6358C8.92494 21.7494 8.62334 21.7791 8.33236 21.7212C8.04139 21.6633 7.77412 21.5204 7.56434 21.3107C7.35456 21.1009 7.2117 20.8336 7.15382 20.5426C7.09594 20.2517 7.12565 19.9501 7.23918 19.676C7.35271 19.4019 7.54497 19.1676 7.79165 19.0028C8.03832 18.838 8.32833 18.75 8.625 18.75C9.02282 18.75 9.40436 18.908 9.68566 19.1893C9.96696 19.4706 10.125 19.8522 10.125 20.25ZM19.875 20.25C19.875 20.5467 19.787 20.8367 19.6222 21.0834C19.4574 21.33 19.2231 21.5223 18.949 21.6358C18.6749 21.7494 18.3733 21.7791 18.0824 21.7212C17.7914 21.6633 17.5241 21.5204 17.3143 21.3107C17.1046 21.1009 16.9617 20.8336 16.9038 20.5426C16.8459 20.2517 16.8756 19.9501 16.9892 19.676C17.1027 19.4019 17.295 19.1676 17.5416 19.0028C17.7883 18.838 18.0783 18.75 18.375 18.75C18.7728 18.75 19.1544 18.908 19.4357 19.1893C19.717 19.4706 19.875 19.8522 19.875 20.25Z"/>
</svg>

<svg viewBox="0 0 24 24" xmlns="http://www.w3.org/2000/svg" aria-hidden="true" fill="currentColor"><path d="M15.375 2.25h-.75a1.5 1.5 0 0 0-1.5 1.5V9H5.55a3.756 3.756 0 0 0-3.675-3 .75.75 0 0 0 0 1.5 2.25 2.25 0 0 1 2.25 2.25 7.51 7.51 0 0 0 7.5 7.5h3.75a7.5 7.5 0 0 0 0-15M21.326 9h-5.313l3.925-3.14A6 6 0 0 1 21.326 9m-5.951-5.25a5.96 5.96 0 0 1 3.44 1.088l-4.19 3.351V3.75zm0 12h-3.75a6.01 6.01 0 0 1-5.953-5.25h15.656a6.01 6.01 0 0 1-5.953 5.25m-5.25 4.5a1.5 1.5 0 1 1-3 0 1.5 1.5 0 0 1 3 0m9.75 0a1.5 1.5 0 1 1-3 0 1.5 1.5 0 0 1 3 0"/></svg>
